packages/icons/svgs/solid/Source=chemistry.svg

<svg width="12" height="12" viewBox="0 0 12 12" fill="none" xmlns="http://www.w3.org/2000/svg">
<g clip-path="url(#clip0_1504_848)">
<path d="M9.375 0H2.625C2.41789 0 2.25 0.167893 2.25 0.375V1.875C2.25 2.08211 2.41789 2.25 2.625 2.25H9.375C9.58211 2.25 9.75 2.08211 9.75 1.875V0.375C9.75 0.167893 9.58211 0 9.375 0Z" fill="black"/>
<path d="M7.87499 6.612V3H4.12499V6.612L1.70249 9.4755C1.52798 9.67164 1.40565 9.90856 1.3468 10.1644C1.28795 10.4203 1.29446 10.6868 1.36574 10.9395C1.45857 11.2473 1.64843 11.5169 1.90699 11.708C2.16555 11.8991 2.47897 12.0016 2.80049 12H9.19949C9.52101 12.0016 9.83443 11.8991 10.093 11.708C10.3516 11.5169 10.5414 11.2473 10.6342 10.9395C10.7054 10.6869 10.7119 10.4204 10.6532 10.1646C10.5945 9.90877 10.4724 9.67182 10.2982 9.4755L7.87499 6.612Z" fill="black"/>
</g>
<defs>
<clipPath id="clip0_1504_848">
<rect width="12" height="12" fill="white"/>
</clipPath>
</defs>
</svg>

<svg xmlns="http://www.w3.org/2000/svg" width="12" height="12" viewBox="0 0 12 12"><g clip-path="url(#a)"><path d="M9.375 0h-6.75a.375.375 0 0 0-.375.375v1.5c0 .207.168.375.375.375h6.75a.375.375 0 0 0 .375-.375v-1.5A.375.375 0 0 0 9.375 0Zm-1.5 6.612V3h-3.75v3.612L1.702 9.476a1.564 1.564 0 0 0-.336 1.463A1.491 1.491 0 0 0 2.8 12h6.4a1.49 1.49 0 0 0 1.434-1.06 1.566 1.566 0 0 0-.336-1.464L7.875 6.612Z"/></g><defs><clipPath id="a"><path fill="#fff" d="M0 0h12v12H0z"/></clipPath></defs></svg>
